src/assets/images/logo-dark.svg

<svg width="258" height="258" viewBox="0 0 258 258" fill="none" xmlns="http://www.w3.org/2000/svg">
<g clip-path="url(#clip0_2582_2)">
<mask id="mask0_2582_2" style="mask-type:luminance" maskUnits="userSpaceOnUse" x="0" y="0" width="258" height="258">
<path d="M238 0H20C8.9543 0 0 8.9543 0 20V238C0 249.046 8.9543 258 20 258H238C249.046 258 258 249.046 258 238V20C258 8.9543 249.046 0 238 0Z" fill="white"/>
</mask>
<g mask="url(#mask0_2582_2)">
<path d="M319.506 0L318.796 205.318H362.011L362.721 0H319.506ZM-142.52 48.8853C-188.031 48.8853 -225.157 84.7781 -225.31 129.07C-225.464 173.362 -188.652 209.255 -143.074 209.255C-97.4967 209.255 -60.4376 173.362 -60.2845 129.07C-60.1313 84.7781 -96.9423 48.8853 -142.52 48.8853ZM-142.944 171.394C-167.049 171.394 -186.498 152.43 -186.417 129.005C-186.336 105.579 -166.756 86.6161 -142.65 86.6161C-118.477 86.6161 -99.029 105.579 -99.1099 129.005C-99.1909 152.43 -118.77 171.394 -142.944 171.394ZM261.254 52.7568L261.226 61.0246C248.625 53.3474 233.651 48.8853 217.648 48.8853C194.555 48.8853 173.658 58.0718 158.617 72.9015L71.6205 158.73C63.6931 166.604 52.6027 171.394 40.4485 171.394C16.3428 171.394 -3.10574 152.43 -3.02475 129.005C-2.94377 105.579 16.7034 86.6161 40.7416 86.6161C52.9633 86.6161 63.9528 91.4711 71.826 99.2801L87.774 115.159L115.079 88.1901L99.6692 72.9015C84.7304 58.0718 63.8975 48.8853 40.8046 48.8853C24.8017 48.8853 9.86356 53.3474 -2.8573 61.0246L-2.64655 0.0655994H-45.456L-46.1658 205.384H-3.35638L-3.32779 197.116C9.33999 204.793 24.3146 209.321 40.25 209.321C63.3428 209.321 84.2395 200.069 99.2806 185.305L186.278 99.2801C194.205 91.4061 205.296 86.6161 217.45 86.6161C241.555 86.6161 261.004 105.579 260.923 129.005C260.842 152.43 241.262 171.459 217.156 171.459C204.935 171.459 193.945 166.538 186.072 158.73L170.191 142.916L142.887 169.885L158.229 185.174C173.168 200.003 194 209.19 217.093 209.19C233.096 209.19 248.102 204.728 260.756 196.985L260.727 205.253H303.604L304.131 52.7568H261.254ZM-332.35 94.6871C-332.318 85.1721 -322.108 81.2351 -309.751 81.2351C-290.642 81.2351 -286.012 89.6341 -285.443 100.658H-242.633C-244.957 69.883 -270.209 49.7384 -310.318 49.7384C-350.359 49.7384 -375.755 71.5891 -375.852 99.4771C-376.076 164.176 -282.528 136.551 -282.622 163.585C-282.647 170.869 -290.099 178.021 -306.102 178.021C-328.924 177.693 -335.367 166.341 -335.334 157.023H-378.819C-378.043 186.42 -351.582 208.271 -308.435 208.271C-268.596 208.271 -237.078 192.982 -236.951 156.302C-236.749 97.9671 -332.446 122.246 -332.35 94.6871Z" fill="white"/>
</g>
</g>
<defs>
<clipPath id="clip0_2582_2">
<rect width="258" height="258" fill="white"/>
</clipPath>
</defs>
</svg>

<svg xmlns="http://www.w3.org/2000/svg" width="258" height="258" fill="none"><g clip-path="url(#a)"><mask id="b" width="258" height="258" x="0" y="0" maskUnits="userSpaceOnUse" style="mask-type:luminance"><path fill="#fff" d="M238 0H20C8.954 0 0 8.954 0 20v218c0 11.046 8.954 20 20 20h218c11.046 0 20-8.954 20-20V20c0-11.046-8.954-20-20-20"/></mask><g mask="url(#b)"><path fill="#fff" d="m319.506 0-.71 205.318h43.215L362.721 0zM-142.52 48.885c-45.511 0-82.637 35.893-82.79 80.185s36.658 80.185 82.236 80.185c45.577 0 82.636-35.893 82.79-80.185.153-44.292-36.658-80.185-82.236-80.185m-.424 122.509c-24.105 0-43.554-18.964-43.473-42.389s19.661-42.389 43.767-42.389c24.173 0 43.621 18.963 43.54 42.389-.08 23.425-19.66 42.389-43.834 42.389M261.254 52.757l-.028 8.268c-12.601-7.678-27.575-12.14-43.578-12.14-23.093 0-43.99 9.187-59.031 24.017L71.621 158.73c-7.928 7.874-19.018 12.664-31.172 12.664-24.106 0-43.555-18.964-43.474-42.389s19.728-42.389 43.767-42.389c12.221 0 23.21 4.855 31.084 12.664l15.948 15.879 27.305-26.969-15.41-15.288C84.73 58.072 63.898 48.885 40.805 48.885a84.25 84.25 0 0 0-43.662 12.14l.21-60.96h-42.809l-.71 205.319h42.81l.028-8.268c12.668 7.677 27.643 12.205 43.578 12.205 23.093 0 43.99-9.252 59.03-24.016l86.998-86.025c7.927-7.874 19.018-12.664 31.172-12.664 24.105 0 43.554 18.963 43.473 42.389-.081 23.425-19.661 42.454-43.767 42.454-12.221 0-23.211-4.921-31.084-12.729l-15.881-15.814-27.304 26.969 15.342 15.289c14.939 14.829 35.771 24.016 58.864 24.016 16.003 0 31.009-4.462 43.663-12.205l-.029 8.268h42.877l.527-152.496zm-593.604 41.93c.032-9.515 10.242-13.452 22.599-13.452 19.109 0 23.739 8.4 24.308 19.423h42.81c-2.324-30.775-27.576-50.92-67.685-50.92-40.041 0-65.437 21.851-65.534 49.74-.224 64.698 93.324 37.073 93.23 64.107-.025 7.284-7.477 14.436-23.48 14.436-22.822-.328-29.265-11.68-29.232-20.998h-43.485c.776 29.397 27.237 51.248 70.384 51.248 39.839 0 71.357-15.289 71.484-51.969.202-58.335-95.495-34.056-95.399-61.615"/></g></g><defs><clipPath id="a"><path fill="#fff" d="M0 0h258v258H0z"/></clipPath></defs></svg>
